files/resources/svgs/general/o-clipboard-document-check.svg

<svg width="24" height="24" viewBox="0 0 24 24" fill="none" xmlns="http://www.w3.org/2000/svg">
<path d="M11.3495 3.83619C11.2848 4.04602 11.25 4.26894 11.25 4.5C11.25 4.91421 11.5858 5.25 12 5.25H16.5C16.9142 5.25 17.25 4.91421 17.25 4.5C17.25 4.26894 17.2152 4.04602 17.1505 3.83619M11.3495 3.83619C11.6328 2.91757 12.4884 2.25 13.5 2.25H15C16.0116 2.25 16.8672 2.91757 17.1505 3.83619M11.3495 3.83619C10.9739 3.85858 10.5994 3.88529 10.2261 3.91627C9.09499 4.01015 8.25 4.97324 8.25 6.10822V8.25M17.1505 3.83619C17.5261 3.85858 17.9006 3.88529 18.2739 3.91627C19.405 4.01015 20.25 4.97324 20.25 6.10822V16.5C20.25 17.7426 19.2426 18.75 18 18.75H15.75M8.25 8.25H4.875C4.25368 8.25 3.75 8.75368 3.75 9.375V20.625C3.75 21.2463 4.25368 21.75 4.875 21.75H14.625C15.2463 21.75 15.75 21.2463 15.75 20.625V18.75M8.25 8.25H14.625C15.2463 8.25 15.75 8.75368 15.75 9.375V18.75M7.5 15.75L9 17.25L12 13.5" stroke="#0F172A" stroke-width="1.5" stroke-linecap="round" stroke-linejoin="round"/>
</svg>

<svg xmlns="http://www.w3.org/2000/svg" fill="none" viewBox="0 0 24 24" stroke-width="1.5" stroke="currentColor" aria-hidden="true">
  <path stroke-linecap="round" stroke-linejoin="round" d="M11.35 3.836c-.065.21-.1.433-.1.664 0 .414.336.75.75.75h4.5a.75.75 0 00.75-.75 2.25 2.25 0 00-.1-.664m-5.8 0A2.251 2.251 0 0113.5 2.25H15c1.012 0 1.867.668 2.15 1.586m-5.8 0c-.376.023-.75.05-1.124.08C9.095 4.01 8.25 4.973 8.25 6.108V8.25m8.9-4.414c.376.023.75.05 1.124.08 1.131.094 1.976 1.057 1.976 2.192V16.5A2.25 2.25 0 0118 18.75h-2.25m-7.5-10.5H4.875c-.621 0-1.125.504-1.125 1.125v11.25c0 .621.504 1.125 1.125 1.125h9.75c.621 0 1.125-.504 1.125-1.125V18.75m-7.5-10.5h6.375c.621 0 1.125.504 1.125 1.125v9.375m-8.25-3l1.5 1.5 3-3.75"/>
</svg>
